symbols/web/more_horiz/materialsymbolsoutlined/more_horiz_wght700gradN25_48px.svg

<svg xmlns="http://www.w3.org/2000/svg" height="48" width="48"><path d="M8.95 26.9q-1.15 0-2.025-.85T6.05 24q0-1.25.85-2.075.85-.825 2.05-.825 1.15 0 2.05.825.9.825.9 2.025t-.9 2.075q-.9.875-2.05.875Zm15.1 0q-1.2 0-2.075-.85Q21.1 25.2 21.1 24q0-1.25.85-2.075.85-.825 2.05-.825 1.25 0 2.075.825.825.825.825 2.025t-.825 2.075q-.825.875-2.025.875Zm15 0q-1.2 0-2.075-.85Q36.1 25.2 36.1 24q0-1.25.875-2.075.875-.825 2.075-.825 1.25 0 2.1.825.85.825.85 2.025t-.875 2.075q-.875.875-2.075.875Z"/></svg>

<svg xmlns="http://www.w3.org/2000/svg" height="48" width="48"><path d="M8.95 26.9Q7.8 26.9 6.925 26.05Q6.05 25.2 6.05 24Q6.05 22.75 6.9 21.925Q7.75 21.1 8.95 21.1Q10.1 21.1 11 21.925Q11.9 22.75 11.9 23.95Q11.9 25.15 11 26.025Q10.1 26.9 8.95 26.9ZM24.05 26.9Q22.85 26.9 21.975 26.05Q21.1 25.2 21.1 24Q21.1 22.75 21.95 21.925Q22.8 21.1 24 21.1Q25.25 21.1 26.075 21.925Q26.9 22.75 26.9 23.95Q26.9 25.15 26.075 26.025Q25.25 26.9 24.05 26.9ZM39.05 26.9Q37.85 26.9 36.975 26.05Q36.1 25.2 36.1 24Q36.1 22.75 36.975 21.925Q37.85 21.1 39.05 21.1Q40.3 21.1 41.15 21.925Q42 22.75 42 23.95Q42 25.15 41.125 26.025Q40.25 26.9 39.05 26.9Z"/></svg>
